resources/svg/airpods-o.svg

<svg width="15" height="15" viewBox="0 0 15 15" fill="none" xmlns="http://www.w3.org/2000/svg">
<path d="M6.5 3.49999C6.5 5.09297 5.10384 6.32547 3.52317 6.12789L3.20273 6.08783C2.74222 6.03027 2.30471 5.85353 1.93344 5.57508L0.5 4.49999V2.49999L1.93344 1.42491C2.30471 1.14646 2.74222 0.969716 3.20273 0.912153L3.52317 0.872098C5.10384 0.674514 6.5 1.90702 6.5 3.49999ZM6.5 3.49999V14.5H4.5V5.99999M8.5 3.49999C8.5 5.09297 9.89616 6.32547 11.4768 6.12789L11.7973 6.08783C12.2578 6.03027 12.6953 5.85353 13.0666 5.57508L14.5 4.49999V2.49999L13.0666 1.42491C12.6953 1.14646 12.2578 0.969716 11.7973 0.912153L11.4768 0.872098C9.89616 0.674514 8.5 1.90702 8.5 3.49999ZM8.5 3.49999V14.5H10.5V5.99999M2 3.49999H4M11 3.49999H13" stroke="black"/>
</svg>

<svg viewBox="0 0 15 15" fill="none" xmlns="http://www.w3.org/2000/svg" fill="currentColor"><path d="M6.5 3.5a2.648 2.648 0 01-2.977 2.628l-.32-.04a2.667 2.667 0 01-1.27-.513L.5 4.5v-2l1.433-1.075a2.667 2.667 0 011.27-.513l.32-.04A2.648 2.648 0 016.5 3.5zm0 0v11h-2V6m4-2.5a2.648 2.648 0 002.977 2.628l.32-.04c.46-.058.898-.234 1.27-.513L14.5 4.5v-2l-1.433-1.075a2.667 2.667 0 00-1.27-.513l-.32-.04A2.648 2.648 0 008.5 3.5zm0 0v11h2V6M2 3.5h2m7 0h2" stroke="currentColor"/></svg>
